; generated by PrusaSlicer 2.9.2 on 2025-06-12 at 01:46:45 UTC


;
;
; 

; external perimeters extrusion width = 0.45mm
; perimeters extrusion width = 0.45mm
; infill extrusion width = 0.45mm
; solid infill extrusion width = 0.45mm
; top infill extrusion width = 0.40mm
; first layer extrusion width = 0.42mm

; external perimeters extrusion width = 0.45mm
; perimeters extrusion width = 0.45mm
; infill extrusion width = 0.45mm
; solid infill extrusion width = 0.45mm
; top infill extrusion width = 0.40mm
; first layer extrusion width = 0.42mm

M73 P0 R140
M73 Q0 S142
M201 X1000 Y1000 Z200 E5000 ; sets maximum accelerations, mm/sec^2
M203 X200 Y200 Z12 E120 ; sets maximum feedrates, mm / sec
M204 S1250 T1250 ; sets acceleration (S) and retract acceleration (R), mm/sec^2
M205 X8.00 Y8.00 Z0.40 E4.50 ; sets the jerk limits, mm/sec
M205 S0 T0 ; sets the minimum extruding and travel feed rate, mm/sec

; printing object rj45_cover.STL id:1 copy 0
; stop printing object rj45_cover.STL id:1 copy 0
; printing object switch_cover.STL id:0 copy 0
; stop printing object switch_cover.STL id:0 copy 0

;TYPE:Custom
M862.3 P "MK3S" ; printer model check
M862.1 P0.4 ; nozzle diameter check
M115 U3.14.1 ; tell printer latest fw version
G90 ; use absolute coordinates
M83 ; extruder relative mode
M104 S215 ; set extruder temp
M140 S60 ; set bed temp
M190 S60 ; wait for bed temp
M109 S215 ; wait for extruder temp
G28 W ; home all without mesh bed level
G80 X86.1029 Y67.2229 W77.7942 H75.5542 ; mesh bed levelling

G1 Z0.2 F720
G1 Y-3 F1000 ; go outside print area
G92 E0
G1 X60 E9 F1000 ; intro line
G1 X100 E12.5 F1000 ; intro line

G92 E0
M221 S95

; Don't change E values below. Excessive value can damage the printer.
M907 E430 ; set extruder motor current
G21 ; set units to millimeters
G90 ; use absolute coordinates
M83 ; use relative distances for extrusion

M900 K0.05 ; Filament gcode LA 1.5
M900 K30 ; Filament gcode LA 1.0




M107
;LAYER_CHANGE
;Z:0.2
;HEIGHT:0.2
G1 E-.8 F2100
G1 Z.6 F720
G1 X86.682 Y68.352 F10800
G1 Z.2 F720
G1 E.8 F2100
M204 S800
;TYPE:Skirt/Brim
;WIDTH:0.42
G1 F1200
G1 X87.715 Y67.549 E.04102
G1 X88.48 Y67.411 E.02437
G1 X161.52 Y67.411 E2.29012
G1 X162.768 Y67.802 E.04101
G1 X163.571 Y68.835 E.04102
G1 X163.709 Y69.6 E.02437
G1 X163.709 Y140.4 E2.21988
G1 X163.318 Y141.648 E.04101
M73 Q0 S141
G1 X162.285 Y142.451 E.04102
G1 X161.52 Y142.589 E.02437
G1 X88.48 Y142.589 E2.29012
G1 X87.232 Y142.198 E.04101
G1 X86.429 Y141.165 E.04102
G1 X86.291 Y140.4 E.02437
G1 X86.291 Y69.6 E2.21988
G1 X86.664 Y68.409 E.03913
M204 S1000
;WIPE_START
G1 F8640
G1 X86.682 Y68.352 E-.0138
G1 X87.715 Y67.549 E-.30211
G1 X88.48 Y67.411 E-.17949
G1 X89.799 Y67.411 E-.3046
;WIPE_END
G1 Z.6 F720
; printing object switch_cover.STL id:0 copy 0
G1 X141.218 Y94.821 F10800
G1 Z.2 F720
G1 E.8 F2100
M204 S800
;TYPE:Perimeter
;WIDTH:0.419999
G1 F1200
G1 X140.906 Y94.88 E.00996
G1 X126.888 Y94.88 E.43952
G1 X126.337 Y94.799 E.01746
G1 X125.746 Y94.528 E.02039
G1 X125.266 Y94.088 E.02042
G1 X124.945 Y93.52 E.02046
G1 X124.81 Y92.802 E.02291
G1 X124.81 Y88.204 E.14417
G1 X124.81 Y78.784 E.29536
G1 X124.891 Y78.233 E.01746
G1 X125.162 Y77.641 E.02041
G1 X125.602 Y77.162 E.02039
G1 X126.17 Y76.841 E.02046
G1 X126.888 Y76.706 E.02291
G1 X140.906 Y76.706 E.43952
G1 X141.457 Y76.787 E.01746
G1 X142.049 Y77.057 E.0204
G1 X142.528 Y77.498 E.02041
G1 X142.849 Y78.066 E.02046
G1 X142.977 Y78.695 E.02013
G1 X142.984 Y92.802 E.44231
G1 X142.903 Y93.353 E.01746
G1 X142.632 Y93.944 E.02039
G1 X142.192 Y94.424 E.02042
G1 X141.624 Y94.745 E.02046
G1 X141.277 Y94.81 E.01107
M204 S1000
G1 X141.161 Y94.459 F10800
M204 S800
;TYPE:External perimeter
G1 F1200
G1 X140.906 Y94.503 E.00811
G1 X126.888 Y94.503 E.43952
G1 X126.368 Y94.42 E.01651
G1 X125.917 Y94.192 E.01585
G1 X125.532 Y93.821 E.01676
G1 X125.281 Y93.349 E.01676
G1 X125.187 Y92.802 E.0174
G1 X125.187 Y88.204 E.14417
G1 X125.187 Y78.784 E.29536
G1 X125.267 Y78.275 E.01616
G1 X125.498 Y77.813 E.0162
G1 X125.869 Y77.428 E.01676
G1 X126.341 Y77.177 E.01676
G1 X126.888 Y77.083 E.0174
G1 X140.906 Y77.083 E.43952
G1 X141.426 Y77.166 E.01651
G1 X141.877 Y77.393 E.01583
G1 X142.262 Y77.765 E.01679
G1 X142.513 Y78.237 E.01676
G1 X142.605 Y78.754 E.01646
G1 X142.607 Y92.802 E.44046
G1 X142.53 Y93.298 E.01574
G1 X142.297 Y93.773 E.01659
G1 X141.925 Y94.158 E.01679
G1 X141.453 Y94.409 E.01676
G1 X141.22 Y94.449 E.00741
M204 S1000
;WIPE_START
G1 F8640
G1 X141.161 Y94.459 E-.01382
G1 X140.906 Y94.503 E-.05975
G1 X137.76 Y94.503 E-.72643
;WIPE_END
G1 Z.6 F720
G1 X150.505 Y83.324 F10800
G1 Z.2 F720
G1 E.8 F2100
M204 S800
;TYPE:Perimeter
G1 F1200
G1 X150.971 Y83.38 E.01472
G1 X151.371 Y83.511 E.0132
G1 X151.744 Y83.708 E.01323
G1 X152.078 Y83.966 E.01323
G1 X152.364 Y84.276 E.01322
G1 X152.594 Y84.63 E.01324
G1 X152.76 Y85.017 E.0132
G1 X152.858 Y85.427 E.01322
G1 X152.886 Y85.848 E.01323
G1 X152.842 Y86.267 E.01321
G1 X152.728 Y86.673 E.01322
G1 X152.547 Y87.054 E.01323
G1 X152.304 Y87.399 E.01323
G1 X152.006 Y87.698 E.01324
G1 X151.663 Y87.942 E.0132
G1 X151.282 Y88.124 E.01324
G1 X150.877 Y88.24 E.01321
G1 X150.458 Y88.286 E.01322
G1 X150.037 Y88.26 E.01323
G1 X149.626 Y88.163 E.01324
G1 X149.267 Y88.011 E.01222
G1 X148.883 Y87.77 E.01421
G1 X148.572 Y87.485 E.01323
G1 X148.314 Y87.152 E.01321
G1 X148.115 Y86.78 E.01323
G1 X147.982 Y86.38 E.01322
G1 X147.919 Y85.963 E.01322
G1 X147.927 Y85.541 E.01323
G1 X148.006 Y85.127 E.01321
G1 X148.155 Y84.732 E.01324
G1 X148.351 Y84.395 E.01222
G1 X148.638 Y84.045 E.01419
G1 X148.96 Y83.773 E.01322
G1 X149.324 Y83.559 E.01324
G1 X149.832 Y83.384 E.01685
G1 X150.433 Y83.315 E.01897
G1 X150.446 Y83.317 E.00041
M204 S1000
G1 X150.489 Y83.697 F10800
M204 S800
;TYPE:External perimeter
G1 F1200
G1 X150.86 Y83.741 E.01171
G1 X151.202 Y83.848 E.01124
G1 X151.52 Y84.012 E.01122
G1 X151.806 Y84.227 E.01122
G1 X152.052 Y84.487 E.01122
G1 X152.25 Y84.785 E.01122
G1 X152.395 Y85.112 E.01122
G1 X152.482 Y85.459 E.01122
G1 X152.51 Y85.816 E.01123
G1 X152.477 Y86.172 E.01121
G1 X152.384 Y86.518 E.01123
G1 X152.234 Y86.843 E.01122
G1 X152.032 Y87.138 E.01121
G1 X151.782 Y87.395 E.01124
G1 X151.493 Y87.605 E.0112
G1 X151.172 Y87.764 E.01123
G1 X150.829 Y87.866 E.01122
G1 X150.474 Y87.909 E.01121
G1 X149.896 Y87.843 E.01824
G1 X149.461 Y87.687 E.01449
G1 X149.133 Y87.487 E.01205
G1 X148.866 Y87.249 E.01121
G1 X148.643 Y86.968 E.01125
G1 X148.471 Y86.655 E.0112
G1 X148.354 Y86.316 E.01124
G1 X148.296 Y85.963 E.01122
G1 X148.299 Y85.605 E.01123
G1 X148.362 Y85.253 E.01121
G1 X148.484 Y84.916 E.01124
G1 X148.647 Y84.629 E.01035
G1 X148.888 Y84.328 E.01209
G1 X149.158 Y84.094 E.0112
G1 X149.464 Y83.909 E.01121
G1 X149.912 Y83.753 E.01487
G1 X150.43 Y83.694 E.01635
M204 S1000
;WIPE_START
G1 F8640
G1 X150.489 Y83.697 E-.01364
G1 X150.86 Y83.741 E-.08627
G1 X151.202 Y83.848 E-.08274
G1 X151.52 Y84.012 E-.08262
G1 X151.806 Y84.227 E-.08262
G1 X152.052 Y84.487 E-.08265
G1 X152.25 Y84.785 E-.08261
G1 X152.395 Y85.112 E-.0826
G1 X152.482 Y85.459 E-.0826
G1 X152.51 Y85.816 E-.08269
G1 X152.494 Y85.984 E-.03896
;WIPE_END
G1 Z.6 F720
G1 X99.285 Y83.337 F10800
G1 Z.2 F720
G1 E.8 F2100
M204 S800
;TYPE:Perimeter
G1 F1200
G1 X99.332 Y83.328 E.0015
G1 X99.722 Y83.319 E.01223
G1 X100.171 Y83.38 E.01421
G1 X100.571 Y83.511 E.0132
G1 X100.944 Y83.708 E.01323
G1 X101.278 Y83.966 E.01323
G1 X101.564 Y84.276 E.01322
G1 X101.794 Y84.63 E.01324
G1 X101.96 Y85.017 E.0132
G1 X102.058 Y85.427 E.01322
G1 X102.086 Y85.848 E.01323
G1 X102.042 Y86.267 E.01321
G1 X101.928 Y86.673 E.01322
G1 X101.747 Y87.054 E.01323
G1 X101.504 Y87.399 E.01323
G1 X101.206 Y87.698 E.01324
G1 X100.863 Y87.942 E.0132
G1 X100.482 Y88.124 E.01324
G1 X100.077 Y88.24 E.01321
G1 X99.658 Y88.286 E.01322
G1 X99.237 Y88.26 E.01323
G1 X98.826 Y88.163 E.01324
G1 X98.438 Y87.998 E.01322
G1 X98.083 Y87.77 E.01323
G1 X97.772 Y87.485 E.01323
G1 X97.533 Y87.178 E.0122
G1 X97.315 Y86.78 E.01423
G1 X97.182 Y86.38 E.01322
G1 X97.119 Y85.963 E.01322
G1 X97.119 Y85.637 E.01022
G1 X97.206 Y85.127 E.01622
G1 X97.343 Y84.762 E.01222
G1 X97.567 Y84.368 E.01421
G1 X97.839 Y84.045 E.01324
G1 X98.16 Y83.773 E.01319
G1 X98.619 Y83.52 E.01643
G1 X98.918 Y83.409 E.01
G1 X99.226 Y83.349 E.00984
M204 S1000
G1 X99.332 Y83.708 F10800
M204 S800
;TYPE:External perimeter
G1 F1200
G1 X99.678 Y83.693 E.01086
G1 X100.06 Y83.741 E.01207
G1 X100.402 Y83.848 E.01124
G1 X100.72 Y84.012 E.01122
G1 X101.006 Y84.227 E.01122
G1 X101.252 Y84.487 E.01122
G1 X101.45 Y84.785 E.01122
G1 X101.595 Y85.112 E.01122
G1 X101.682 Y85.459 E.01122
G1 X101.71 Y85.816 E.01123
G1 X101.677 Y86.172 E.01121
G1 X101.584 Y86.518 E.01123
G1 X101.434 Y86.843 E.01122
G1 X101.232 Y87.138 E.01121
G1 X100.982 Y87.395 E.01124
G1 X100.693 Y87.605 E.0112
G1 X100.372 Y87.764 E.01123
G1 X100.029 Y87.866 E.01122
G1 X99.674 Y87.909 E.01121
G1 X99.316 Y87.891 E.01124
G1 X98.76 Y87.73 E.01815
G1 X98.332 Y87.487 E.01543
G1 X98.066 Y87.249 E.01119
G1 X97.86 Y86.99 E.01038
G1 X97.671 Y86.655 E.01206
G1 X97.554 Y86.316 E.01124
G1 X97.496 Y85.963 E.01122
G1 X97.496 Y85.637 E.01022
G1 X97.562 Y85.253 E.01222
G1 X97.674 Y84.942 E.01036
G1 X97.861 Y84.605 E.01208
G1 X98.088 Y84.328 E.01123
G1 X98.358 Y84.094 E.0112
G1 X98.76 Y83.87 E.01443
G1 X99.274 Y83.721 E.01678
M204 S1000
;WIPE_START
G1 F8640
G1 X99.332 Y83.708 E-.01372
G1 X99.678 Y83.693 E-.07997
G1 X100.06 Y83.741 E-.0889
G1 X100.402 Y83.848 E-.08274
G1 X100.72 Y84.012 E-.08262
G1 X101.006 Y84.227 E-.08262
G1 X101.252 Y84.487 E-.08265
G1 X101.45 Y84.785 E-.08261
G1 X101.595 Y85.112 E-.0826
G1 X101.682 Y85.459 E-.0826
G1 X101.695 Y85.627 E-.03897
;WIPE_END
G1 Z.6 F720
G1 X160.733 Y101.213 F10800
G1 Z.2 F720
G1 E.8 F2100
M204 S800
;TYPE:Perimeter
G1 F1200
G1 X89.267 Y101.213 E2.24076
G1 X89.267 Y70.387 E.96653
G1 X160.733 Y70.387 E2.24076
G1 X160.733 Y77.196 E.21349
G1 X160.733 Y101.153 E.75115
M73 P0 R139
M204 S1000
G1 X161.11 Y101.59 F10800
M204 S800
;TYPE:External perimeter
G1 F1200
G1 X88.89 Y101.59 E2.2644
G1 X88.89 Y70.01 E.99017
G1 X161.11 Y70.01 E2.2644
G1 X161.11 Y77.196 E.22531
G1 X161.11 Y101.53 E.76297
M204 S1000
;WIPE_START
G1 F8640
G1 X161.11 Y101.59 E-.01385
G1 X157.705 Y101.59 E-.78615
;WIPE_END
G1 Z.6 F720
G1 X160.563 Y71.322 F10800
G1 Z.2 F720
G1 E.8 F2100
M204 S800
;TYPE:Solid infill
;WIDTH:0.421364
G1 F1200
G1 X159.968 Y70.726 E.0265
G1 X159.433 Y70.726 E.01684
G1 X160.394 Y71.687 E.04277
G1 X160.394 Y72.223 E.01687
G1 X158.897 Y70.726 E.06662
G1 X158.362 Y70.726 E.01684
G1 X160.394 Y72.758 E.09043
G1 X160.394 Y73.293 E.01684
G1 X157.827 Y70.726 E.11424
G1 X157.292 Y70.726 E.01684
G1 X160.394 Y73.828 E.13805
G1 X160.394 Y74.363 E.01684
G1 X156.757 Y70.726 E.16185
G1 X156.221 Y70.726 E.01687
G1 X160.394 Y74.899 E.18571
G1 X160.394 Y75.434 E.01684
G1 X155.686 Y70.726 E.20952
G1 X155.151 Y70.726 E.01684
G1 X160.394 Y75.969 E.23332
G1 X160.394 Y76.504 E.01684
G1 X154.616 Y70.726 E.25713
G1 X154.081 Y70.726 E.01684
G1 X160.394 Y77.039 E.28094
G1 X160.394 Y77.575 E.01687
G1 X153.545 Y70.726 E.30479
G1 X153.01 Y70.726 E.01684
G1 X160.394 Y78.11 E.3286
G1 X160.394 Y78.645 E.01684
G1 X152.475 Y70.726 E.35241
G1 X151.94 Y70.726 E.01684
G1 X160.394 Y79.18 E.37622
G1 X160.394 Y79.715 E.01684
G1 X151.405 Y70.726 E.40003
G1 X150.869 Y70.726 E.01687
G1 X160.394 Y80.251 E.42388
G1 X160.394 Y80.786 E.01684
G1 X150.334 Y70.726 E.44769
G1 X149.799 Y70.726 E.01684
G1 X160.394 Y81.321 E.4715
G1 X160.394 Y81.856 E.01684
G1 X149.264 Y70.726 E.49531
G1 X148.729 Y70.726 E.01684
G1 X160.394 Y82.391 E.51912
G1 X160.394 Y82.927 E.01687
G1 X148.193 Y70.726 E.54297
G1 X147.658 Y70.726 E.01684
G1 X160.394 Y83.462 E.56678
G1 X160.394 Y83.997 E.01684
G1 X147.123 Y70.726 E.59059
G1 X146.588 Y70.726 E.01684
G1 X160.394 Y84.532 E.6144
G1 X160.394 Y85.067 E.01684
G1 X146.053 Y70.726 E.6382
G1 X145.517 Y70.726 E.01687
G1 X160.394 Y85.603 E.66206
G1 X160.394 Y86.138 E.01684
G1 X144.982 Y70.726 E.68587
G1 X144.447 Y70.726 E.01684
M73 Q0 S140
G1 X160.394 Y86.673 E.70968
G1 X160.394 Y87.208 E.01684
G1 X143.912 Y70.726 E.73348
G1 X143.377 Y70.726 E.01684
G1 X160.394 Y87.743 E.75729
G1 X160.394 Y88.279 E.01687
G1 X142.841 Y70.726 E.78115
G1 X142.306 Y70.726 E.01684
G1 X160.394 Y88.814 E.80495
G1 X160.394 Y89.349 E.01684
G1 X141.771 Y70.726 E.82876
G1 X141.236 Y70.726 E.01684
G1 X160.394 Y89.884 E.85257
G1 X160.394 Y90.419 E.01684
G1 X140.701 Y70.726 E.87638
G1 X140.165 Y70.726 E.01687
G1 X160.394 Y90.955 E.90023
G1 X160.394 Y91.49 E.01684
M73 P1 R139
M73 Q1 S140
G1 X139.63 Y70.726 E.92404
G1 X139.095 Y70.726 E.01684
G1 X160.394 Y92.025 E.94785
G1 X160.394 Y92.56 E.01684
G1 X153.183 Y85.349 E.3209
G1 X153.228 Y85.799 E.01423
G1 X153.218 Y85.919 E.00379
G1 X160.394 Y93.095 E.31935
G1 X160.394 Y93.631 E.01687
G1 X153.156 Y86.393 E.32211
G1 X153.038 Y86.811 E.01367
G1 X160.394 Y94.166 E.32734
G1 X160.394 Y94.701 E.01684
G1 X152.865 Y87.172 E.33506
G1 X152.656 Y87.498 E.01219
G1 X160.394 Y95.236 E.34436
G1 X160.394 Y95.771 E.01684
G1 X152.404 Y87.781 E.35557
G1 X152.317 Y87.876 E.00405
G1 X152.118 Y88.031 E.00794
G1 X160.394 Y96.307 E.3683
G1 X160.394 Y96.842 E.01684
G1 X151.797 Y88.245 E.38258
G1 X151.443 Y88.427 E.01253
G1 X160.394 Y97.377 E.39832
G1 X160.394 Y97.912 E.01684
G1 X151.034 Y88.553 E.41652
G1 X150.563 Y88.617 E.01496
G1 X160.394 Y98.447 E.43748
G1 X160.394 Y98.983 E.01687
G1 X149.783 Y88.372 E.47221
M204 S1000
;WIPE_START
G1 F8640
G1 X152.233 Y90.822 E-.8
;WIPE_END
G1 Z.6 F720
G1 X151.069 Y83.236 F10800
G1 Z.2 F720
G1 E.8 F2100
M204 S800
G1 F1200
G1 X138.56 Y70.726 E.5567
G1 X138.025 Y70.726 E.01684
G1 X150.281 Y82.983 E.54544
G1 X150.041 Y82.995 E.00756
G1 X149.807 Y83.044 E.00752
G1 X137.489 Y70.726 E.54818
G1 X136.954 Y70.726 E.01684
G1 X149.397 Y83.169 E.55374
G1 X149.189 Y83.247 E.00699
G1 X149.031 Y83.339 E.00575
G1 X136.419 Y70.726 E.56128
G1 X135.884 Y70.726 E.01684
G1 X141.639 Y76.482 E.25613
G1 X142.212 Y76.76 E.02004
G1 X142.424 Y76.914 E.00825
G1 X142.865 Y77.37 E.01996
G1 X143.206 Y78.049 E.02391
G1 X148.704 Y83.547 E.24467
G1 X148.413 Y83.791 E.01195
G1 X143.31 Y78.688 E.22709
G1 X143.324 Y79.237 E.01728
G1 X148.17 Y84.083 E.21566
G1 X148.078 Y84.193 E.00451
G1 X147.959 Y84.407 E.00771
G1 X143.324 Y79.772 E.20627
G1 X143.324 Y80.307 E.01684
M73 P1 R138
G1 X147.777 Y84.761 E.19819
G1 X147.647 Y85.166 E.01338
G1 X143.324 Y80.842 E.1924
G1 X143.324 Y81.377 E.01684
G1 X147.587 Y85.641 E.18973
G1 X147.579 Y85.972 E.01042
G1 X147.613 Y86.202 E.00732
G1 X143.324 Y81.913 E.19087
G1 X143.324 Y82.448 E.01684
G1 X147.823 Y86.947 E.20022
G1 X148.096 Y87.437 E.01765
G1 X148.407 Y87.804 E.01514
G1 X148.782 Y88.116 E.01535
G1 X149.101 Y88.307 E.0117
G1 X149.244 Y88.368 E.00489
G1 X160.394 Y99.518 E.4962
G1 X160.394 Y100.053 E.01684
G1 X143.324 Y82.983 E.75965
G1 X143.324 Y83.518 E.01684
G1 X160.394 Y100.588 E.75965
G1 X160.394 Y100.874 E.009
G1 X160.144 Y100.874 E.00787
G1 X143.324 Y84.053 E.74855
G1 X143.324 Y84.589 E.01687
G1 X159.608 Y100.874 E.72469
G1 X159.073 Y100.874 E.01684
G1 X143.324 Y85.124 E.70089
G1 X143.324 Y85.659 E.01684
G1 X158.538 Y100.874 E.67708
G1 X158.003 Y100.874 E.01684
G1 X143.324 Y86.194 E.65327
G1 X143.324 Y86.729 E.01684
G1 X157.468 Y100.874 E.62946
G1 X156.932 Y100.874 E.01687
G1 X143.324 Y87.265 E.60561
G1 X143.324 Y87.8 E.01684
G1 X156.397 Y100.874 E.5818
G1 X155.862 Y100.874 E.01684
G1 X143.324 Y88.335 E.55799
G1 X143.324 Y88.87 E.01684
G1 X155.327 Y100.874 E.53418
G1 X154.792 Y100.874 E.01684
G1 X143.324 Y89.405 E.51037
G1 X143.324 Y89.941 E.01687
G1 X154.256 Y100.874 E.48652
G1 X153.721 Y100.874 E.01684
G1 X143.324 Y90.476 E.46271
G1 X143.324 Y91.011 E.01684
G1 X153.186 Y100.874 E.4389
G1 X152.651 Y100.874 E.01684
G1 X143.324 Y91.546 E.41509
G1 X143.324 Y92.081 E.01684
G1 X152.116 Y100.874 E.39128
G1 X151.58 Y100.874 E.01687
G1 X143.324 Y92.617 E.36743
G1 X143.324 Y92.814 E.0062
G1 X143.276 Y93.105 E.00928
G1 X151.045 Y100.874 E.34574
G1 X150.51 Y100.874 E.01684
G1 X143.199 Y93.563 E.32535
G1 X143.022 Y93.921 E.01257
G1 X149.975 Y100.874 E.30942
G1 X149.44 Y100.874 E.01684
G1 X142.822 Y94.256 E.29451
G1 X142.56 Y94.53 E.01193
G1 X148.904 Y100.874 E.28232
